X: 11050
T: JULIANA'S JIG
C: Bob McQuillen 11 Aug.99
B: Bob's Note Book 11 #50
R: jig
Z: 2020 John Chambers <jc:trillian.mit.edu>
M: 6/8
L: 1/8
K: D
B \
| Add cde | fdd d2f | gag fde | fdf edB |\
| Add cde | fdB Afg | afa gec | edd d2 :|
|: e \
| fdc dfd | BGA B2g | gfg Bed | cAA Ade |\
| fdf g2e | faf d2A | Bgf eag | fdd d2 :|
%%begintext align
%% Earlier in
%% this book you met Denise Reese; well,
%% this tune is for her cute little daughter,
%% Julianna, with much love from Bob :-)
%%endtext

%%sep 1 1 500

%%sep 1 1 500

